X:1
T:Moll Roe [2]
M:9/8
L:1/8
R:Slip Jig
S:Breathnach - Man & his Music
K:G
A|BGG AGE GED|EGD DEG A3|BGG AGE GED|EGD DEF G3||
Bdd edd BAG|Bdd edB A3|Bdd edd BAG|GED DEF G3||

